X:1
T:Title
%%score { ( 1 3 5 ) | ( 2 4 ) }
L:1/8
Q:1/4=106
M:4/4
K:C
V:1 treble nm="Grand Piano"
V:3 treble 
V:5 treble 
V:2 bass 
V:4 bass 
V:1
 CC/C/ CC EE/E/ EE | G3 G G2 z A/B/ | cc/c/ cc cc/c/ cc | e4 c4 | GG/G/ GG GGAB | %5
w: C.~Harold~Lowden * * * * * * * * *|||||
 c2 c/B/c/B/ c2 z2 | [Cc]4 [B,B]4 | z2 E2 E2 [G,CE]2 | [A,CD]2 [A,CE]2 [A,CF]2 [G,B,DG]2 | %9
w: ||||
 [G,CE]3 D C2[K:bass] [G,B,D]2 | z4[K:treble] z2 [B,D]2 | z2 A2 A2 [D^FAc]2 | %12
w: |||
 [DGB]2 [EGc]2 [CEGA]2 [CD^FA]2 | [B,DG]2 [DE^G]2 [CEA]2 [D=GB]2 | [Cc]4 [B,B]4 | %15
w: |||
 z2 E2 E2 [G,CE]2 | [A,CD]2 [A,CE]2 [A,CF]2 [G,B,DG]2 | [G,CE]3 D C2[K:bass] [G,B,D]2 | %18
w: |||
 z4 z2 [B,D]2[K:treble] | [A,CFA]2 [DE^GB]2 [EAc]2 [FAd]2 | [EGc]4 [DGB]4 | [CEGc]6 z2 |] %22
w: ||||
V:2
 C,C,/C,/ C,C, E,E,/E,/ E,E, | G,3 G, G,2 z A,/B,/ | CC/C/ CC CC/C/ CC | E4 C4 | %4
 G,G,/G,/ G,G, G,G,A,B, | C2 C/B,/C/B,/ C2 z2 | [C,,C,]4 [C,,C,]4 | z2 C2 C2 [C,,C,]2 | %8
 [F,,F,]2 [E,,E,]2 [D,,D,]2 [G,,,G,,]2 | z2 z F, [E,G,]2 [G,,,G,,]2 | [C,,C,]4 [B,,,B,,]4 | %11
 z2 E2 E2 [D,,D,]2 | [G,,G,]2 [C,,C,]2 [D,,D,]2 [D,,D,]2 | [G,,G,]2 [E,,E,]2 [A,,A,]2 [G,,G,]2 | %14
 [C,,C,]4 [C,,C,]4 | z2 C2 C2 [C,,C,]2 | [F,,F,]2 [E,,E,]2 [D,,D,]2 [G,,,G,,]2 | %17
 z2 z F, [E,G,]2 [G,,,G,,]2 | [C,,C,]4 [D,,D,]3 [E,,E,] | [F,,F,]2 [E,,E,]2 [A,,A,]2 [F,,F,]2 | %20
 [G,,G,]4 [G,,G,]4 | [C,,C,]6 z2 |] %22
V:3
 x8 | z4 z2 G2 | x8 | x8 | x8 | x8 | z2 [EG]2 z2 z [A,A] | [G,G]6 z2 | x8 | x6[K:bass] x2 | %10
 [E,E]4[K:treble] [G,G]4 | [Cc]6 z2 | x8 | x8 | z4 z2 [_E^F]2 | [G,G]6 z2 | x8 | x6[K:bass] x2 | %18
 z2 [G,C]2 z2 z[K:treble] [G,G] | x8 | x8 | x8 |] %22
V:4
 x8 | z4 z2 G,2 | x8 | x8 | x8 | x8 | x8 | [C,,C,]6 z2 | x8 | [C,,C,]6 z2 | x8 | [A,,,A,,]6 z2 | %12
 x8 | x8 | x8 | [C,,C,]6 z2 | x8 | [C,,C,]6 z2 | x8 | x8 | x8 | x8 |] %22
V:5
 x8 | x8 | x8 | x8 | x8 | x8 | z4 z2 [_EF]2 | x8 | x8 | x6[K:bass] x2 | %10
 z2[K:treble] [G,C]2 z2 z [G,G] | x8 | x8 | x8 | z2 [EG]2 z2 z [A,A] | x8 | x8 | x6[K:bass] x2 | %18
 [E,E]4 [F,F]4[K:treble] | x8 | x8 | x8 |] %22

